X:1
T:Mist On the Mountain
M:6/8
L:1/8
R:jig
K:Ador
EAA ABd | edB AGE | G3 GAB | dBA GED |
EAA ABd | edB AGD | efg dBG |1 BAG A2G :|2 BAG A2g ||
age a2b | age edB | AGE G2A | BAB GED |
age a2b | age edB | AGE G2A | BAG A3 |
age a2b | age edB | AGE G2A | BAB GED |
EDE G2A | BAG Bcd | efg dBG | BAG A2 |]
